X:1
T:Title
%%score { 1 | ( 2 3 ) }
L:1/8
M:4/4
K:G
V:1 treble nm="Grand Piano"
V:2 bass 
V:3 bass 
V:1
 z4 z2[Q:1/4=100] GA | [DB]B[B,G]A [DB]B[DB]d | [Ed]c[EG]A B2 Bc | [DB]ADB [CA]GDG | %4
[M:9/8] [^CG]BA E A2- AGA |[M:4/4] [DB]B[B,G]A [DB]B[DB]d | [Ed]c[EG]A B2 BB | %7
 [=Fd]c[CA]c [Ec]B[B,G]B |[M:3/4] [DB]A DA [B,G]2 |[M:1/4] [GB][Gd] | %10
[M:4/4] [Fd][Fc][FA][Fc] [Ac]BGB | BAG[FA] B2 BB | [^DB]>[DB] [DB][DA] [FA]GBB | %13
 [G^c]>[Gc] [GB][Gc] [Fd]2 [Fd]>[Fe] | [Fd][Fc][Fc][Fd] [Ac]BBc | BAGA B3 B | %16
 [EA]>[Ae] [Ae][EA] G>d dB |[M:3/4] BA B>A [B,G]2 |] %18
V:2
 z4 z2 B,C | z D z C z[K:treble] D z =F | z E z ^D [G,=D]2 D^D | z CCD z B,B,B, | %4
[M:9/8] z ^CC C [D,F,=C]2- [D,F,C]B,C |[M:4/4] z D z C z[K:treble] D z =F | z E z ^D [G,=D]2 DD | %7
 z E z E z D z D |[M:3/4] z C CC [G,,D,]2 |[M:1/4] [G,D][G,B,] | %10
[M:4/4] [D,A,][D,A,][D,D][D,D][K:treble] [G,D][G,DG][K:bass][G,B,D][G,D] | %11
 [D,G,D][D,CD][D,B,D][D,D][K:treble] [G,DG]2 [G,D][K:bass][G,D] | %12
 [B,,F,]>[B,,F,] [B,,F,][B,,B,] [E,B,][E,B,E][E,G,E][E,G,E] | %13
 [E,A,]>[E,A,] [A,,A,][A,,A,] [D,A,]2 [D,A,]>[D,A,] | %14
 [D,A,][D,A,][D,A,][D,D][K:treble] [G,D][G,DG][G,DG][G,EG] | %15
 [G,DG][G,CD][G,B,D][G,CD] [G,DG]3 [G,DG] | %16
 [C,C]>[C,C] [C,C][C,C] [G,B,D]>[K:treble][G,B,G] [G,B,G][K:bass][G,D] | %17
[M:3/4] [D,G,D][D,F,C] [D,G,D]>[D,C] [G,,D,]2 |] %18
V:3
 x8 | G,,2 G,2 G,,2[K:treble] G,2 | C,2 C2 z4 | [D,,D,]2 [F,A,]2 G,,2 [D,G,]2 | %4
[M:9/8] A,,2 [E,G,]- [E,G,] z z z3 |[M:4/4] G,,2 G,2 G,,2[K:treble] G,2 | C,2 C2 z4 | %7
 C,2 E,2 G,,2 D,2 |[M:3/4] D,,2 [D,F,]2 z2 |[M:1/4] x2 |[M:4/4] x4[K:treble] x2[K:bass] x2 | %11
 x4[K:treble] x3[K:bass] x | x8 | x8 | x4[K:treble] x4 | x8 | x11/2[K:treble] x3/2[K:bass] x | %17
[M:3/4] x6 |] %18

